Newaita/actions/scalable/distribute-horizontal-x.svg

<?xml version="1.0" encoding="UTF-8"?>
<svg xmlns="http://www.w3.org/2000/svg" xmlns:xlink="http://www.w3.org/1999/xlink" width="512pt" height="512pt" viewBox="0 0 512 512" version="1.1">
<g id="surface1">
<path style=" stroke:none;fill-rule:nonzero;fill:rgb(25.882354%,25.882354%,25.882354%);fill-opacity:1;" d="M 52.921875 131.011719 C 35.332031 131.011719 21.167969 145.175781 21.167969 162.765625 L 21.167969 353.285156 C 21.167969 370.875 35.332031 385.035156 52.921875 385.035156 L 116.429688 385.035156 C 134.019531 385.035156 148.179688 370.875 148.179688 353.285156 L 148.179688 162.765625 C 148.179688 145.175781 134.019531 131.011719 116.429688 131.011719 Z M 74.089844 162.765625 L 95.257812 162.765625 C 106.988281 162.765625 116.429688 172.207031 116.429688 183.933594 L 116.429688 332.113281 C 116.429688 343.84375 106.988281 353.285156 95.257812 353.285156 L 74.089844 353.285156 C 62.363281 353.285156 52.921875 343.84375 52.921875 332.113281 L 52.921875 183.933594 C 52.921875 172.207031 62.363281 162.765625 74.089844 162.765625 Z M 74.089844 162.765625 "/>
<path style=" stroke:none;fill-rule:nonzero;fill:rgb(25.882354%,25.882354%,25.882354%);fill-opacity:1;" d="M 391.621094 131.011719 C 374.03125 131.011719 359.867188 145.175781 359.867188 162.765625 L 359.867188 353.285156 C 359.867188 370.875 374.03125 385.035156 391.621094 385.035156 L 455.125 385.035156 C 472.71875 385.035156 486.878906 370.875 486.878906 353.285156 L 486.878906 162.765625 C 486.878906 145.175781 472.71875 131.011719 455.125 131.011719 Z M 412.789062 162.765625 L 433.957031 162.765625 C 445.6875 162.765625 455.125 172.207031 455.125 183.933594 L 455.125 332.113281 C 455.125 343.84375 445.6875 353.285156 433.957031 353.285156 L 412.789062 353.285156 C 401.0625 353.285156 391.621094 343.84375 391.621094 332.113281 L 391.621094 183.933594 C 391.621094 172.207031 401.0625 162.765625 412.789062 162.765625 Z M 412.789062 162.765625 "/>
<path style=" stroke:none;fill-rule:nonzero;fill:rgb(47.058824%,56.470591%,61.176473%);fill-opacity:1;" d="M 190.519531 215.6875 C 178.789062 215.6875 169.347656 225.128906 169.347656 236.855469 L 169.347656 279.191406 C 169.347656 290.921875 178.789062 300.363281 190.519531 300.363281 C 202.246094 300.363281 211.6875 290.921875 211.6875 279.191406 L 296.363281 279.191406 C 296.363281 290.921875 305.804688 300.363281 317.53125 300.363281 C 329.257812 300.363281 338.699219 290.921875 338.699219 279.191406 L 338.699219 236.855469 C 338.699219 225.128906 329.257812 215.6875 317.53125 215.6875 C 305.804688 215.6875 296.363281 225.128906 296.363281 236.855469 L 211.6875 236.855469 C 211.6875 225.128906 202.246094 215.6875 190.519531 215.6875 Z M 190.519531 215.6875 "/>
</g>
</svg>

<svg xmlns="http://www.w3.org/2000/svg" width="512pt" height="512pt" viewBox="0 0 512 512"><path d="M52.922 131.012c-17.59 0-31.754 14.164-31.754 31.754v190.52c0 17.589 14.164 31.75 31.754 31.75h63.508c17.59 0 31.75-14.161 31.75-31.75v-190.52c0-17.59-14.16-31.754-31.75-31.754zm21.168 31.754h21.168a21.123 21.123 0 0 1 21.172 21.168v148.18a21.124 21.124 0 0 1-21.172 21.171H74.09a21.123 21.123 0 0 1-21.168-21.172v-148.18a21.122 21.122 0 0 1 21.168-21.167zm0 0M391.621 131.012c-17.59 0-31.754 14.164-31.754 31.754v190.52c0 17.589 14.164 31.75 31.754 31.75h63.504c17.594 0 31.754-14.161 31.754-31.75v-190.52c0-17.59-14.16-31.754-31.754-31.754zm21.168 31.754h21.168a21.12 21.12 0 0 1 21.168 21.168v148.18a21.12 21.12 0 0 1-21.168 21.171h-21.168a21.123 21.123 0 0 1-21.168-21.172v-148.18a21.122 21.122 0 0 1 21.168-21.167zm0 0" fill="#424242"/><path d="M190.52 215.688a21.123 21.123 0 0 0-21.172 21.167v42.336a21.124 21.124 0 0 0 21.172 21.172 21.123 21.123 0 0 0 21.167-21.172h84.676a21.123 21.123 0 0 0 21.168 21.172 21.123 21.123 0 0 0 21.168-21.172v-42.336a21.122 21.122 0 0 0-21.168-21.167 21.122 21.122 0 0 0-21.168 21.167h-84.675a21.122 21.122 0 0 0-21.168-21.167zm0 0" fill="#78909c"/></svg>
